resources/images/AllianceIcon.svg

<svg xmlns="http://www.w3.org/2000/svg" width="834" height="834" shape-rendering="geometricPrecision" image-rendering="optimizeQuality" fill-rule="evenodd" xmlns:v="https://vecta.io/nano"><path d="M-.5 397.5v-5l136-239.5c1.667-.667 3.333-.667 5 0 20.752 12.458 41.252 25.291 61.5 38.5.638 1.109 1.138 2.275 1.5 3.5l-135 240.5c-3.0617 2.497-6.0617 2.33-9-.5l-60-37.5zm834-5v5c-21.238 14.207-43.071 27.541-65.5 40-1.285-.45-2.452-1.117-3.5-2L629.5 195c.583-2.499 1.916-4.499 4-6l59-36c1.667-.667 3.333-.667 5 0l136 239.5z" fill="#278f06"/><path d="M432.5 217.5c22.065-.582 44.065.251 66 2.5l85 17c5.667.667 11.333.667 17 0 9.847-1.549 19.514-3.549 29-6L734 417.5c-10.863 11.197-22.029 22.03-33.5 32.5-7.415 5.46-15.248 10.293-23.5 14.5-79.554-66.724-165.721-123.891-258.5-171.5-4.198-2.514-8.698-4.347-13.5-5.5-14.009 3.961-27.842 8.461-41.5 13.5-13.712 20.712-31.045 37.712-52 51-13.542 7.51-28.042 11.677-43.5 12.5-3.583-.558-7.083-1.391-10.5-2.5-2.082-2.409-3.082-5.243-3-8.5.561-6.244 2.061-12.244 4.5-18 21.319-34.477 44.486-67.644 69.5-99.5 11.022-5.673 22.688-9.34 35-11 23.037-3.569 46.037-6.069 69-7.5zm-231 15c10.445 5.724 21.112 11.224 32 16.5 18.501 4.528 37.168 8.195 56 11-17.45 23.055-33.283 47.222-47.5 72.5-11.16 34.914 1.34 50.747 37.5 47.5 17.364-2.453 33.364-8.453 48-18 18.377-12.71 33.71-28.376 46-47 10.749-4.255 21.749-7.255 33-9 66.843 32.897 129.843 71.564 189 116 24.877 18.276 49.21 37.276 73 57 17.316 16.374 17.316 32.708 0 49-10.221 5.794-20.888 6.794-32 3L502 451.5c-9.201 3.025-10.701 8.191-4.5 15.5L622 542.5c3.242 24.405-7.258 37.905-31.5 40.5-4.333.667-8.667.667-13 0l-109-63c-8.528-.156-11.695 4.011-9.5 12.5l107 63c1.107 12.35-2.726 22.85-11.5 31.5-3.448 1.927-7.115 3.261-11 4-8.72.839-17.387.505-26-1l-85-41c-9.548-.747-12.715 3.42-9.5 12.5l2.5 2.5 82 40c-16.901 24.862-40.068 33.362-69.5 25.5-18.921-3.688-37.421-8.855-55.5-15.5 16.937-19.691 18.437-40.524 4.5-62.5-10.469-13.324-23.969-19.657-40.5-19 1.841-25.828-8.825-44.328-32-55.5-5.764-2.214-11.597-3.047-17.5-2.5 2.293-30.025-10.873-49.525-39.5-58.5-15.974-2.677-29.141 2.157-39.5 14.5-2.973 4.474-6.14 8.807-9.5 13-13.651-30.999-36.318-40.832-68-29.5l-11 9c-10.856-14.036-22.19-27.702-34-41l106-189.5z" fill="#278f04"/><path fill="#28900b" d="M158.5 464.5c17.008.509 28.175 8.842 33.5 25 1.31 7.371.31 14.371-3 21-7.473 10.107-15.306 19.94-23.5 29.5-18.101 6.072-31.601.572-40.5-16.5-3.601-8.846-3.267-17.512 1-26 7.473-10.107 15.306-19.94 23.5-29.5 3.071-1.296 6.071-2.462 9-3.5z"/><path fill="#289009" d="M246.5 471.5c24.731 2.84 35.564 16.507 32.5 41l-58 81c-10.712 9.718-22.212 10.552-34.5 2.5-12.299-9.422-16.465-21.588-12.5-36.5 19.728-28.396 40.228-56.229 61.5-83.5 3.553-2.121 7.22-3.621 11-4.5z"/><path fill="#28900b" d="M293.5 530.5c18.901-.264 30.734 8.736 35.5 27 1.405 7.217.071 13.884-4 20L279.5 639c-19.61 8.459-34.11 2.959-43.5-16.5-3.226-7.013-3.226-14.013 0-21l47-65c3.101-2.852 6.601-4.852 10.5-6z"/><path fill="#28900c" d="M344.5 588.5c23.569 1.069 35.402 13.402 35.5 37-.856 4.044-2.522 7.711-5 11-8.91 11.488-17.577 23.155-26 35-9.872 10.173-21.039 11.673-33.5 4.5-13.736-9.632-18.236-22.465-13.5-38.5 11.116-15.451 22.616-30.617 34.5-45.5 2.809-1.093 5.476-2.26 8-3.5z"/></svg>

<?xml version="1.0" encoding="UTF-8"?>
<!DOCTYPE svg PUBLIC "-//W3C//DTD SVG 1.1//EN" "http://www.w3.org/Graphics/SVG/1.1/DTD/svg11.dtd">
<svg xmlns="http://www.w3.org/2000/svg" version="1.1" width="834px" height="834px" style="shape-rendering:geometricPrecision; text-rendering:geometricPrecision; image-rendering:optimizeQuality; fill-rule:evenodd; clip-rule:evenodd" xmlns:xlink="http://www.w3.org/1999/xlink">
<g><path  fill="#278f06" d="M -0.5,397.5 C -0.5,395.833 -0.5,394.167 -0.5,392.5C 44.6795,312.648 90.0129,232.815 135.5,153C 137.167,152.333 138.833,152.333 140.5,153C 161.252,165.458 181.752,178.291 202,191.5C 202.638,192.609 203.138,193.775 203.5,195C 159.14,275.555 114.14,355.722 68.5,435.5C 65.4383,437.997 62.4383,437.83 59.5,435C 39.3038,422.739 19.3038,410.239 -0.5,397.5 Z"/></g>
<g><path  fill="#278f06" d="M 833.5,392.5 C 833.5,394.167 833.5,395.833 833.5,397.5C 812.262,411.707 790.429,425.041 768,437.5C 766.715,437.05 765.548,436.383 764.5,435.5C 718.86,355.722 673.86,275.555 629.5,195C 630.083,192.501 631.416,190.501 633.5,189C 653.333,177.251 673,165.251 692.5,153C 694.167,152.333 695.833,152.333 697.5,153C 742.987,232.815 788.32,312.648 833.5,392.5 Z"/></g>
<g><path  fill="#278f04" d="M 432.5,217.5 C 454.565,216.918 476.565,217.751 498.5,220C 526.867,225.508 555.2,231.175 583.5,237C 589.167,237.667 594.833,237.667 600.5,237C 610.347,235.451 620.014,233.451 629.5,231C 665.047,292.944 699.88,355.11 734,417.5C 723.137,428.697 711.971,439.53 700.5,450C 693.085,455.46 685.252,460.293 677,464.5C 597.446,397.776 511.279,340.609 418.5,293C 414.302,290.486 409.802,288.653 405,287.5C 390.991,291.461 377.158,295.961 363.5,301C 349.788,321.712 332.455,338.712 311.5,352C 297.958,359.51 283.458,363.677 268,364.5C 264.417,363.942 260.917,363.109 257.5,362C 255.418,359.591 254.418,356.757 254.5,353.5C 255.061,347.256 256.561,341.256 259,335.5C 280.319,301.023 303.486,267.856 328.5,236C 339.522,230.327 351.188,226.66 363.5,225C 386.537,221.431 409.537,218.931 432.5,217.5 Z"/></g>
<g><path  fill="#278f04" d="M 201.5,232.5 C 211.945,238.224 222.612,243.724 233.5,249C 252.001,253.528 270.668,257.195 289.5,260C 272.05,283.055 256.217,307.222 242,332.5C 230.84,367.414 243.34,383.247 279.5,380C 296.864,377.547 312.864,371.547 327.5,362C 345.877,349.29 361.21,333.624 373.5,315C 384.249,310.745 395.249,307.745 406.5,306C 473.343,338.897 536.343,377.564 595.5,422C 620.377,440.276 644.71,459.276 668.5,479C 685.816,495.374 685.816,511.708 668.5,528C 658.279,533.794 647.612,534.794 636.5,531C 591.897,504.053 547.064,477.553 502,451.5C 492.799,454.525 491.299,459.691 497.5,467C 539.083,492.041 580.583,517.208 622,542.5C 625.242,566.905 614.742,580.405 590.5,583C 586.167,583.667 581.833,583.667 577.5,583C 541.33,561.747 504.997,540.747 468.5,520C 459.972,519.844 456.805,524.011 459,532.5C 494.337,554.004 530.004,575.004 566,595.5C 567.107,607.85 563.274,618.35 554.5,627C 551.052,628.927 547.385,630.261 543.5,631C 534.78,631.839 526.113,631.505 517.5,630C 489.289,616.061 460.955,602.394 432.5,589C 422.952,588.253 419.785,592.42 423,601.5C 423.833,602.333 424.667,603.167 425.5,604C 453.042,616.955 480.375,630.289 507.5,644C 490.599,668.862 467.432,677.362 438,669.5C 419.079,665.812 400.579,660.645 382.5,654C 399.437,634.309 400.937,613.476 387,591.5C 376.531,578.176 363.031,571.843 346.5,572.5C 348.341,546.672 337.675,528.172 314.5,517C 308.736,514.786 302.903,513.953 297,514.5C 299.293,484.475 286.127,464.975 257.5,456C 241.526,453.323 228.359,458.157 218,470.5C 215.027,474.974 211.86,479.307 208.5,483.5C 194.849,452.501 172.182,442.668 140.5,454C 136.682,457.185 133.015,460.185 129.5,463C 118.644,448.964 107.31,435.298 95.5,422C 131.491,359.182 166.824,296.016 201.5,232.5 Z"/></g>
<g><path  fill="#28900b" d="M 158.5,464.5 C 175.508,465.009 186.675,473.342 192,489.5C 193.31,496.871 192.31,503.871 189,510.5C 181.527,520.607 173.694,530.44 165.5,540C 147.399,546.072 133.899,540.572 125,523.5C 121.399,514.654 121.733,505.988 126,497.5C 133.473,487.393 141.306,477.56 149.5,468C 152.571,466.704 155.571,465.538 158.5,464.5 Z"/></g>
<g><path  fill="#289009" d="M 246.5,471.5 C 271.231,474.34 282.064,488.007 279,512.5C 260.055,539.779 240.721,566.779 221,593.5C 210.288,603.218 198.788,604.052 186.5,596C 174.201,586.578 170.035,574.412 174,559.5C 193.728,531.104 214.228,503.271 235.5,476C 239.053,473.879 242.72,472.379 246.5,471.5 Z"/></g>
<g><path  fill="#28900b" d="M 293.5,530.5 C 312.401,530.236 324.234,539.236 329,557.5C 330.405,564.717 329.071,571.384 325,577.5C 309.833,598 294.667,618.5 279.5,639C 259.89,647.459 245.39,641.959 236,622.5C 232.774,615.487 232.774,608.487 236,601.5C 251.422,579.657 267.088,557.99 283,536.5C 286.101,533.648 289.601,531.648 293.5,530.5 Z"/></g>
<g><path  fill="#28900c" d="M 344.5,588.5 C 368.069,589.569 379.902,601.902 380,625.5C 379.144,629.544 377.478,633.211 375,636.5C 366.09,647.988 357.423,659.655 349,671.5C 339.128,681.673 327.961,683.173 315.5,676C 301.764,666.368 297.264,653.535 302,637.5C 313.116,622.049 324.616,606.883 336.5,592C 339.309,590.907 341.976,589.74 344.5,588.5 Z"/></g>
</svg>
